img/svg/old/game-icons_materials-science.svg

<svg width="48" height="48" viewBox="0 0 48 48" fill="none" xmlns="http://www.w3.org/2000/svg">
<g id="game-icons:materials-science">
<path id="Vector" d="M24.0917 2.09946C22.5167 2.09946 21.0457 2.81665 19.7919 3.99105C18.5383 5.16574 17.465 6.80168 16.5704 8.78327C16.3829 9.1984 16.2038 9.62983 16.0326 10.0749C15.571 10.0016 15.1074 9.94138 14.6423 9.8943C14.1014 9.8404 13.5736 9.80693 13.0608 9.79493C11.5214 9.75837 10.1145 9.91446 8.88138 10.2882C7.23738 10.7867 5.88082 11.7023 5.09332 13.0661C4.30582 14.4301 4.19144 16.0627 4.58173 17.7357C4.97219 19.4087 5.85223 21.1561 7.12113 22.9218C7.38738 23.2921 7.67182 23.6635 7.97201 24.0349C7.67833 24.3974 7.39496 24.7682 7.12226 25.1468C5.85326 26.9124 4.97323 28.6598 4.58285 30.3328C4.19248 32.0059 4.30694 33.6385 5.09444 35.0022C5.88194 36.3663 7.23851 37.2818 8.88251 37.78C10.5266 38.2786 12.48 38.3901 14.6434 38.174C15.097 38.1286 15.5603 38.0681 16.0317 37.9938C16.199 38.4301 16.3786 38.8616 16.5704 39.2877C17.465 41.2696 18.5382 42.9053 19.7919 44.0799C21.0456 45.2544 22.5168 45.9717 24.0917 45.9717C25.6665 45.9717 27.1376 45.2544 28.3913 44.0799C29.6449 42.9052 30.7182 41.2695 31.6128 39.2877C31.8046 38.8617 31.9842 38.4302 32.1515 37.994C32.6223 38.068 33.0853 38.1287 33.5385 38.174C35.702 38.39 37.6555 38.2785 39.2994 37.78C40.9436 37.2817 42.3002 36.3661 43.0877 35.0022C43.8752 33.6382 43.9895 32.0058 43.5993 30.3328C43.2088 28.6599 42.3287 26.9125 41.0598 25.1468C40.787 24.7683 40.5036 24.3975 40.21 24.0349C40.5041 23.672 40.7879 23.3009 41.0609 22.9219C42.3298 21.1562 43.2098 19.4088 43.6002 17.7358C43.9906 16.0628 43.8761 14.4302 43.0886 13.0661C42.3011 11.7024 40.9445 10.7868 39.3005 10.2883C38.0675 9.91455 36.6605 9.75846 35.1213 9.79493C34.6082 9.80693 34.0803 9.8404 33.5394 9.8943C33.0857 9.93968 32.6219 10.0005 32.1503 10.0748C31.9832 9.63931 31.8038 9.20864 31.6125 8.78327C30.7178 6.8014 29.6447 5.16546 28.3909 3.99096C27.1372 2.81646 25.6661 2.09937 24.0913 2.09937L24.0917 2.09946ZM24.0917 3.85137C25.1421 3.85137 26.1722 4.3129 27.1935 5.2698C28.2147 6.22652 29.1901 7.67477 30.016 9.50421C30.1503 9.8027 30.278 10.1041 30.3991 10.4082C28.3912 10.8547 26.2647 11.5396 24.0911 12.4548C21.918 11.5398 19.7917 10.8551 17.7843 10.4086C17.9082 10.0983 18.0355 9.79586 18.1673 9.50411C18.9933 7.67458 19.9686 6.22633 20.9899 5.26943C22.0113 4.31271 23.0412 3.85118 24.0918 3.85118L24.0917 3.85137ZM12.5051 11.5442C12.6742 11.5425 12.8461 11.5436 13.0205 11.5476C13.4855 11.5579 13.969 11.5879 14.4683 11.6379C14.7876 11.6697 15.114 11.7105 15.4456 11.7586C14.8281 13.7205 14.3581 15.9044 14.0635 18.2442C12.184 19.6692 10.5274 21.1687 9.13694 22.6845C8.93344 22.4271 8.73567 22.1653 8.54379 21.8991C7.37238 20.2691 6.60598 18.7003 6.28788 17.3374C5.96988 15.9745 6.08538 14.8518 6.61057 13.9421C7.13576 13.0323 8.05057 12.3711 9.38969 11.9651C10.2686 11.6985 11.3209 11.5549 12.505 11.5441L12.5051 11.5442ZM35.6771 11.5442C36.8612 11.555 37.9135 11.6986 38.7924 11.9651C40.1317 12.3711 41.0462 13.0323 41.5714 13.9421C42.0966 14.8518 42.2122 15.9746 41.8942 17.3374C41.5764 18.7002 40.8095 20.2691 39.6383 21.8991C39.4465 22.1653 39.2487 22.4272 39.0453 22.6847C37.655 21.1691 35.9989 19.67 34.12 18.2452C33.8256 15.905 33.355 13.7208 32.7376 11.7586C33.0688 11.7105 33.3948 11.6696 33.7138 11.6379C34.1951 11.5891 34.6781 11.559 35.1617 11.5475C35.3334 11.5436 35.5053 11.5424 35.6771 11.544V11.5442ZM30.9971 12.073C31.463 13.5203 31.8488 15.1172 32.1367 16.8261C31.2066 16.1978 30.2546 15.6026 29.2824 15.0416C28.311 14.4804 27.3201 13.9537 26.3115 13.4625C27.9352 12.8574 29.5109 12.3931 30.9971 12.0731V12.073ZM17.1861 12.0732C18.6721 12.3933 20.2475 12.8576 21.8708 13.4626C20.8622 13.9538 19.8713 14.4805 18.8999 15.0416C17.9282 15.6023 16.9765 16.1972 16.0467 16.8251C16.3345 15.1166 16.7202 13.5202 17.1861 12.0732ZM24.0911 14.3664C25.5168 14.9952 26.9639 15.7261 28.4064 16.559C29.8495 17.3922 31.2067 18.2802 32.4644 19.2009C32.6328 20.7503 32.7233 22.3694 32.7233 24.0356C32.7233 25.7007 32.633 27.3192 32.4648 28.868C31.2071 29.7884 29.8501 30.6762 28.4074 31.5093C26.9646 32.3423 25.5171 33.0734 24.0912 33.7023C22.6651 33.0734 21.2176 32.3423 19.7748 31.5093C18.3324 30.6765 16.9759 29.789 15.7188 28.8689C15.5505 27.3199 15.46 25.7011 15.46 24.0355C15.46 22.3691 15.5505 20.7497 15.7189 19.2001C16.9764 18.2798 18.3332 17.3919 19.7758 16.559C21.2184 15.7262 22.6655 14.9952 24.0911 14.3666V14.3664ZM24.2096 17.0022L19.1938 20.0976L24.2096 23.1932L29.2254 20.0976L24.2096 17.0021V17.0022ZM13.8258 20.6711C13.747 21.7907 13.7077 22.9128 13.708 24.0353C13.708 25.1788 13.7483 26.3014 13.8259 27.3975C12.49 26.2941 11.3 25.1616 10.2797 24.0344C11.3 22.9074 12.4899 21.7747 13.8258 20.6711ZM34.3576 20.672C35.6928 21.7754 36.8825 22.9076 37.9025 24.0345C36.8825 25.1614 35.6928 26.2936 34.3576 27.3968C34.4363 26.278 34.4756 25.1569 34.4753 24.0354C34.4753 22.8912 34.435 21.7685 34.3575 20.672H34.3576ZM18.0638 21.4589V27.5712L23.3316 30.8222V24.7102L18.0638 21.4589ZM30.3505 21.4621L25.0839 24.7124V30.8216L30.3506 27.5712V21.4621H30.3505ZM9.13676 25.3846C10.5274 26.9006 12.1838 28.3996 14.0631 29.8246C14.3575 32.1641 14.8278 34.3479 15.445 36.3098C15.1141 36.3576 14.7882 36.3985 14.4694 36.4304C12.4722 36.6298 10.73 36.5092 9.39082 36.1032C8.05151 35.6973 7.13707 35.0358 6.61179 34.126C6.0866 33.2162 5.97101 32.0935 6.28901 30.7307C6.60701 29.3679 7.37351 27.799 8.54491 26.169C8.73639 25.9032 8.93366 25.6417 9.13676 25.3846ZM39.0453 25.3849C39.2522 25.6474 39.4503 25.909 39.6371 26.169C40.8084 27.7989 41.5749 29.3678 41.8929 30.7306C42.2109 32.0935 42.0956 33.2161 41.5704 34.126C41.045 35.0357 40.1304 35.6972 38.7911 36.1031C37.452 36.5091 35.7101 36.6297 33.7128 36.4303C33.3872 36.3973 33.0622 36.3571 32.7383 36.3099C33.3557 34.3475 33.8258 32.1633 34.1202 29.8233C35.9989 28.3987 37.6551 26.9 39.0453 25.3847L39.0453 25.3849ZM32.1371 31.2427C31.8493 32.9514 31.4636 34.5483 30.9977 35.9955C29.5113 35.6755 27.9355 35.211 26.3117 34.606C27.3205 34.1145 28.3118 33.5877 29.2835 33.0265C30.2555 32.4656 31.2073 31.8706 32.1373 31.2427H32.1371ZM16.0463 31.2436C16.9758 31.8713 17.9271 32.4659 18.8986 33.0265C19.8703 33.5877 20.8616 34.1145 21.8704 34.606C20.2471 35.2109 18.6717 35.6754 17.1855 35.9953C16.7195 34.5484 16.3341 32.9518 16.0463 31.2436ZM24.1435 31.3233L24.2073 31.3627L24.2707 31.3233H24.1436H24.1435ZM24.091 35.614C26.2651 36.529 28.3917 37.2138 30.3998 37.6601C30.2786 37.9651 30.1506 38.2674 30.016 38.5667C29.1901 40.396 28.2147 41.8442 27.1934 42.8011C26.1722 43.7579 25.1421 44.2195 24.0917 44.2195C23.0411 44.2195 22.0111 43.7579 20.9898 42.8011C19.9686 41.8443 18.9933 40.396 18.1673 38.5666C18.0327 38.2673 17.9047 37.965 17.7834 37.66C19.7912 37.2136 21.9176 36.5289 24.0912 35.614H24.091Z" fill="#2B7FFF"/>
</g>
</svg>

<svg xmlns="http://www.w3.org/2000/svg" fill="none" viewBox="0 0 48 48">
  <path fill="#2B7FFF" d="M24.092 2.1c-1.575 0-3.046.717-4.3 1.891-1.254 1.175-2.327 2.81-3.222 4.792-.187.415-.366.847-.537 1.292a24.773 24.773 0 0 0-1.39-.18 20.9 20.9 0 0 0-1.582-.1c-1.54-.037-2.947.12-4.18.493-1.644.499-3 1.414-3.788 2.778-.787 1.364-.902 2.997-.511 4.67.39 1.673 1.27 3.42 2.54 5.186.265.37.55.741.85 1.113a24.69 24.69 0 0 0-.85 1.112c-1.269 1.765-2.149 3.513-2.54 5.186-.39 1.673-.275 3.306.512 4.67.788 1.363 2.145 2.279 3.789 2.777 1.644.499 3.597.61 5.76.394.454-.045.917-.106 1.389-.18.167.436.347.868.538 1.294.895 1.982 1.968 3.617 3.222 4.792 1.254 1.174 2.725 1.892 4.3 1.892 1.575 0 3.046-.718 4.3-1.892 1.253-1.175 2.326-2.81 3.22-4.792.193-.426.372-.858.54-1.294.47.074.933.135 1.386.18 2.164.216 4.118.105 5.761-.394 1.645-.498 3.001-1.414 3.789-2.778.787-1.364.901-2.996.511-4.67-.39-1.672-1.27-3.42-2.54-5.185a24.94 24.94 0 0 0-.849-1.112c.294-.363.578-.734.85-1.113 1.27-1.766 2.15-3.513 2.54-5.186.39-1.673.276-3.306-.511-4.67-.788-1.364-2.145-2.28-3.788-2.778-1.233-.373-2.64-.53-4.18-.493a20.9 20.9 0 0 0-1.582.1c-.453.045-.917.106-1.389.18a24.877 24.877 0 0 0-.537-1.292c-.895-1.982-1.968-3.618-3.222-4.792-1.254-1.175-2.725-1.892-4.3-1.892Zm0 1.751c1.05 0 2.08.462 3.102 1.419 1.02.957 1.996 2.405 2.822 4.234.134.299.262.6.383.904-2.008.447-4.134 1.132-6.308 2.047-2.173-.915-4.3-1.6-6.307-2.046.124-.31.252-.613.383-.905.826-1.83 1.802-3.278 2.823-4.235 1.021-.956 2.051-1.418 3.102-1.418Zm-11.587 7.693a18.711 18.711 0 0 1 1.963.094c.32.032.646.072.978.12-.618 1.963-1.088 4.146-1.383 6.486-1.879 1.425-3.536 2.925-4.926 4.44a21.511 21.511 0 0 1-.593-.785c-1.172-1.63-1.938-3.199-2.256-4.562-.318-1.362-.203-2.485.323-3.395.525-.91 1.44-1.57 2.779-1.977.879-.267 1.93-.41 3.115-.42Zm23.172 0c1.184.011 2.236.155 3.115.421 1.34.406 2.254 1.067 2.78 1.977.525.91.64 2.033.322 3.395-.318 1.363-1.084 2.932-2.256 4.562-.191.266-.39.528-.593.786-1.39-1.516-3.046-3.015-4.925-4.44-.294-2.34-.765-4.524-1.382-6.486.33-.049.657-.09.976-.121a18.78 18.78 0 0 1 1.963-.094Zm-4.68.529a34.027 34.027 0 0 1 1.14 4.753 47.596 47.596 0 0 0-5.826-3.364 34.032 34.032 0 0 1 4.686-1.389Zm-13.81 0c1.485.32 3.06.785 4.684 1.39a47.666 47.666 0 0 0-5.824 3.362 34 34 0 0 1 1.14-4.752Zm6.904 2.293a44.814 44.814 0 0 1 4.315 2.193c1.444.833 2.8 1.721 4.058 2.642.169 1.55.26 3.168.26 4.835 0 1.665-.091 3.283-.26 4.832a44.898 44.898 0 0 1-4.057 2.641 44.844 44.844 0 0 1-4.316 2.193 44.823 44.823 0 0 1-4.316-2.193 44.825 44.825 0 0 1-4.056-2.64 44.827 44.827 0 0 1-.259-4.834c0-1.666.09-3.285.259-4.835a44.852 44.852 0 0 1 4.057-2.641 44.812 44.812 0 0 1 4.315-2.192Zm.119 2.636-5.016 3.096 5.016 3.095 5.015-3.095-5.015-3.096Zm-10.384 3.67a47.736 47.736 0 0 0 0 6.726 33.97 33.97 0 0 1-3.546-3.364 34.01 34.01 0 0 1 3.546-3.363Zm20.532 0a34.019 34.019 0 0 1 3.545 3.363 33.997 33.997 0 0 1-3.545 3.362 47.72 47.72 0 0 0 0-6.725Zm-16.294.787v6.112l5.268 3.251V24.71l-5.268-3.251Zm12.287.003-5.267 3.25v6.11l5.267-3.25v-6.11ZM9.137 25.385c1.39 1.516 3.047 3.015 4.926 4.44.294 2.34.765 4.523 1.382 6.485-.33.048-.657.088-.976.12-1.997.2-3.739.08-5.078-.327-1.34-.406-2.254-1.067-2.78-1.977-.524-.91-.64-2.032-.322-3.395s1.085-2.932 2.256-4.562c.191-.266.389-.527.592-.784Zm29.908 0c.207.262.405.524.592.784 1.171 1.63 1.938 3.199 2.256 4.562.318 1.362.203 2.485-.323 3.395-.525.91-1.44 1.571-2.779 1.977-1.339.406-3.08.527-5.078.327-.326-.033-.65-.073-.975-.12.618-1.963 1.088-4.147 1.382-6.487C36 28.4 37.655 26.9 39.045 25.385Zm-6.908 5.858a34.013 34.013 0 0 1-1.14 4.753 34.012 34.012 0 0 1-4.685-1.39 47.83 47.83 0 0 0 5.825-3.363Zm-16.09 0a47.658 47.658 0 0 0 5.823 3.363 33.985 33.985 0 0 1-4.684 1.39 33.99 33.99 0 0 1-1.14-4.752Zm8.096.08.064.04.064-.04h-.127Zm-.052 4.291c2.174.915 4.3 1.6 6.309 2.046-.121.305-.25.607-.384.907-.826 1.829-1.801 3.277-2.823 4.234-1.02.957-2.05 1.418-3.101 1.418-1.05 0-2.08-.461-3.102-1.418-1.021-.957-1.997-2.405-2.823-4.234-.134-.3-.262-.602-.384-.907 2.008-.446 4.135-1.131 6.308-2.046Z"/>
</svg>
